X:21
T:Polska från Roslagen
T:Svenska Folkdansar H2 nr 21
O:Roslagen, Uppland
B:Traditioner av Svenska Folkdansar Häfte 2, nr 21
R:Polska
Z:Nils L
U:V = wedge
M:3/4
L:1/8
K:F
f2 e2 d2 | f>d c4 | B2 A2 G2 | A>G F2 f2 | (ef) gVc VdVe | f2 F4 !fine! ::
fe fg af | ba gf ec | fe fg af | ba gf ec !D.C.! :|

